X: 8638
T: Cropie's
R: strathspey
M: 4/4
K: Gmajor
D<G G>E F>G A>F|G>B d>B e3 f|g>b e>g d>g B<G|E<A A>G G>F E>D|
D<G G>E F>G A>F|G>B d>B e3 f|g>b e>g d>g B<G|E>A G/F/E/D/ G4:|
|:e>f g<e a>g e>f|e/f/g f>e d3 B|c>d e<c B>c d<B|E<A A>G G>F E>D|
D<G G>E F>G A>F|G>B d>B e3 f|g>b e>g d<g B<G|E>A G/F/E/D/ G4:|

